X:036occ
T:Gerald Dillon
C:Turlough O'Carolan (1630 - 1738)
C:VIVACE
B:Complete Works Of Turlough O'Carolan (PB - no pub - no date - fleamarket find)
Z:to Noteworthy and MIDI by Chris Gilb; Translation to ABC and GIF copy by Vince Brennan
I:abc2nwc
M:6/8
L:1/8
K:G
d/2c/2|BGd d2f/2g/2|a/2g/2f/2e/2d e/2d/2c/2B/2A|B/2c/2dd e/2d/2BG|eAA/2B/2 A2d/2c/2|
BGg g2f/2g/2|a/2g/2f/2e/2d e/2d/2c/2B/2A|B/2c/2dd b2a|g G2z2||
b/2c'/2|d'bg d'bg|a/2g/2f/2e/2d a/2g/2f/2e/2d|e/2f/2ge f/2g/2af|bc'/2b/2a/2g/2 ab/2a/2g/2f/2|
ga/2g/2f/2e/2 dBd|e/2d/2e/2f/2g e/2d/2e/2f/2g|d'/2c'/2b/2c'/2d' {f}e2z|{e}d2z Ta2g/2f/2|
gdB gdB|e/2d/2c/2B/2A e/2d/2c/2B/2A|B/2c/2dd {a}b2a|g G2z2|]

